X:1
T:Lord, I’m Coming Home
T:William James Kirkpatrick, 1892
T:Lord, I’m Coming Home
T:Public Domain
T:Public Domain
C:William James Kirkpatrick, 1892
Z:Public Domain
%%score ( 1 2 ) ( 3 4 )
L:1/8
M:4/4
K:Ab
V:1 treble 
V:2 treble 
V:3 bass 
V:4 bass 
V:1
 [CE]2 | [Ec]3 [Ec] [CA]3 [EA] | ([DF] [FA]2) [DF] [CE]4 | [CA]2 [CA]2 [Ec] [Ec]3 | [EB]6 E2 | %5
w: 1.~I’ve|wan- dered far a-|way * from God,|Now I’m com- ing|home; The|
w: 2.~I’ve|wast- ed ma- ny|pre- * cious years,|Now I’m com- ing|home; I|
w: 3.~I’m|tired of sin and|stray- * ing, Lord,|Now I’m com- ing|home; I’ll|
w: 4.~My|soul is sick, my|heart * is sore,|Now I’m com- ing|home; My|
w: 5.~My|on- ly hope, my|on- * ly plea,|Now I’m com- ing|home; That|
w: 6.~I|need His cleans- ing|blood, * I know,|Now I’m com- ing|home; O|
 [Ec]3 [Ec] [CA]3 [EA] | ([DF] [FA]2) [DF] [CE]3 z | [CA]2 [CA]2 [DB] [DB]3 | [CA]8 || %9
w: of sin too long|I’ve * trod, Lord,|I’m com- ing home.||
w: re- pent with bit-|ter * tears, Lord,|I’m com- ing home.||
w: Thy love, be- lieve|Thy * Word, Lord,|I’m com- ing home.||
w: re- new, my hope|re- * store, Lord,|I’m com- ing home.||
w: sus died, and died|for * me. Lord,|I’m com- ing home.||
w: me whit- er than|the * snow, Lord,|I’m com- ing home.||
"^Refrain" [Ec] [Ec]3 [CA]4 | [FA] [FA]3 [DF]4 | [CE]2 [Ec]2 [Ec]2 [EA]2 | ([EB]6 E2) | %13
w: ||||
w: ||||
w: ||||
w: ||||
w: ||||
w: ||||
 [Ec]3 [Ec] [CA]3 [EA] | ([DF] [FA]2) [DF] [CE]3 z | [CA]2 [CA]2 [DB] [DB]3 | [CA]6 |] %17
w: ||||
w: ||||
w: ||||
w: ||||
w: ||||
w: ||||
V:2
 x2 | x8 | x8 | x8 | x6 E2 | x8 | x8 | x8 | x8 || x8 | x8 | x8 | x6 E2 | x8 | x8 | x8 | x6 |] %17
w: ||||paths|||||||||||||
w: ||||now|||||||||||||
w: ||||trust|||||||||||||
w: ||||strength|||||||||||||
w: ||||Je-|||||||||||||
w: ||||wash|||||||||||||
V:3
 A,2 | [A,,A,]3 [A,,A,] [A,,E,]3 [C,A,] | [D,A,]3 [D,A,] [A,,A,]4 | [A,,E,]2 [A,,E,]2 A, A,3 | %4
w: ~|~ ~ ~ ~|~ ~ ~|~ ~ ~ ~|
 [E,G,]6 [E,G,]2 | [A,,A,]3 [A,,A,] [A,,E,]3 [C,A,] | [D,A,]3 [D,A,] [A,,A,]3 z | %7
w: ~ ~|~ ~ ~ ~|~ ~ ~|
 [F,A,]2 [F,A,]2 [E,G,] [E,G,]3 | [A,,A,]8 || [A,,A,] [A,,A,]3 [A,,A,]4 | [D,A,] [D,A,]3 [D,A,]4 | %11
w: ~ ~ ~ Com-|ing|home, com- ing|home, Ne- ver-|
 [A,,A,]2 [A,,A,]2 [A,,A,]2 [C,A,]2 | ([E,G,]6 [E,G,]2) | [A,,A,]3 [A,,A,] [A,,E,]3 [C,A,] | %14
w: more to roam, O-|pen *|wide Thine arms of|
 [D,A,]3 [D,A,] [A,,A,]3 z | [F,A,]2 [F,A,]2 [E,G,] [E,G,]3 | [A,,A,]6 |] %17
w: love, Lord, I’m|com- ing home. *||
V:4
 x2 | x8 | x8 | x4 A, A,3 | x8 | x8 | x8 | x8 | x8 || x8 | x8 | x8 | x8 | x8 | x8 | x8 | x6 |] %17
w: |||~ ~||||||||||||||

